X: 1821
T: Rakes Polka
B: australian traditional tunes wiki
M:4/4
R: Set Tune
Q: 1/4=100
K:G
V:1 
AG|:"Am"E2A2A2GA|"Em"B2d2e3f|"C"g2fg ag fe|"G"d2G2A2G2|
"Am"E2A2A2GA|"Em"B2d2e3f|"C"g2e2"G"d2B2|"Am/D"[D4A4][D4A4]:|
|:"Am"a4a2ga|"Em"b2e2e3f|"C"g2fg ag fe|"G"d2G2A2G2|
"Am"a4a2ga|"Em"b2e2e3f|"C"g2e2"G"d2B2|"Am"[D4A4][D3A3]:|
% abcbook-tune_id 6342d53a16f21921864f98f3


% abcbook-boost 0
% abcbook-tablature 
% abcbook-transpose 
% abcbook-lastupdated 1665324386033
% abcbook-soundfonts 
% abcbook-repeats 1
% NFF Book 2015

